X: 34139
T: Reel Du Semeur
R: reel
M: 4/4
K: Dmajor
|:ABAG F2 A2|f4 d4|ABAG F2 A2|f4 d4|
e3 f g2 ec|d2 de fafd|c2 c2 egec|1 d3 d d4:|2 d4 d2 df||
a2 g2 e2 ce|g2 f2 d4|f2 e2 B2 c2|dcde f2 df|
a2 g2 e2 ce|g2 f2 d3 c|B2 g2 e2 c2|1 d3 d d2 df:|2 d4 d4||

